assets/images/vector/icons/dotted_arrow_circle_icon.svg

<svg width="58" height="56" viewBox="0 0 58 56" fill="none" xmlns="http://www.w3.org/2000/svg">
<path d="M5 10.1833L6.36 20L16.1733 18.6433" stroke="#111111" stroke-width="10" stroke-linecap="round" stroke-linejoin="round"/>
<path d="M52.8679 27.4467C51.9845 14.9033 41.5312 5 28.7612 5C18.6579 5 10.0045 11.2 6.39453 20" stroke="#111111" stroke-width="10" stroke-linecap="round" stroke-linejoin="round"/>
<path d="M45.8496 48.7566C47.2303 48.7566 48.3496 47.6373 48.3496 46.2566C48.3496 44.8759 47.2303 43.7566 45.8496 43.7566C44.4689 43.7566 43.3496 44.8759 43.3496 46.2566C43.3496 47.6373 44.4689 48.7566 45.8496 48.7566Z" fill="#111111"/>
<path d="M28.7598 55.8333C30.1405 55.8333 31.2598 54.714 31.2598 53.3333C31.2598 51.9525 30.1405 50.8333 28.7598 50.8333C27.3791 50.8333 26.2598 51.9525 26.2598 53.3333C26.2598 54.714 27.3791 55.8333 28.7598 55.8333Z" fill="#111111"/>
<path d="M11.6699 48.7566C13.0506 48.7566 14.1699 47.6373 14.1699 46.2566C14.1699 44.8759 13.0506 43.7566 11.6699 43.7566C10.2892 43.7566 9.16992 44.8759 9.16992 46.2566C9.16992 47.6373 10.2892 48.7566 11.6699 48.7566Z" fill="#111111"/>
<path d="M4.59375 31.6667C5.97446 31.6667 7.09375 30.5475 7.09375 29.1667C7.09375 27.786 5.97446 26.6667 4.59375 26.6667C3.21304 26.6667 2.09375 27.786 2.09375 29.1667C2.09375 30.5475 3.21304 31.6667 4.59375 31.6667Z" fill="#111111"/>
<path d="M51.0879 40.9133C52.4686 40.9133 53.5879 39.794 53.5879 38.4133C53.5879 37.0326 52.4686 35.9133 51.0879 35.9133C49.7072 35.9133 48.5879 37.0326 48.5879 38.4133C48.5879 39.794 49.7072 40.9133 51.0879 40.9133Z" fill="#111111"/>
<path d="M38.0078 53.9934C39.3885 53.9934 40.5078 52.8741 40.5078 51.4934C40.5078 50.1127 39.3885 48.9934 38.0078 48.9934C36.6271 48.9934 35.5078 50.1127 35.5078 51.4934C35.5078 52.8741 36.6271 53.9934 38.0078 53.9934Z" fill="#111111"/>
<path d="M19.5137 53.9934C20.8944 53.9934 22.0137 52.8741 22.0137 51.4934C22.0137 50.1127 20.8944 48.9934 19.5137 48.9934C18.133 48.9934 17.0137 50.1127 17.0137 51.4934C17.0137 52.8741 18.133 53.9934 19.5137 53.9934Z" fill="#111111"/>
<path d="M6.43359 40.9133C7.81431 40.9133 8.93359 39.794 8.93359 38.4133C8.93359 37.0326 7.81431 35.9133 6.43359 35.9133C5.05288 35.9133 3.93359 37.0326 3.93359 38.4133C3.93359 39.794 5.05288 40.9133 6.43359 40.9133Z" fill="#111111"/>
</svg>

<svg fill="none" height="56" viewBox="0 0 58 56" width="58" xmlns="http://www.w3.org/2000/svg"><path d="m5 10.1833 1.36 9.8167 9.8133-1.3567" stroke="#111" stroke-linecap="round" stroke-linejoin="round" stroke-width="10"/><path d="m52.8679 27.4467c-.8834-12.5434-11.3367-22.4467-24.1067-22.4467-10.1033 0-18.7567 6.2-22.36667 15" stroke="#111" stroke-linecap="round" stroke-linejoin="round" stroke-width="10"/><g fill="#111"><path d="m45.8496 48.7566c1.3807 0 2.5-1.1193 2.5-2.5s-1.1193-2.5-2.5-2.5-2.5 1.1193-2.5 2.5 1.1193 2.5 2.5 2.5z"/><path d="m28.7598 55.8333c1.3807 0 2.5-1.1193 2.5-2.5 0-1.3808-1.1193-2.5-2.5-2.5s-2.5 1.1192-2.5 2.5c0 1.3807 1.1193 2.5 2.5 2.5z"/><path d="m11.6699 48.7566c1.3807 0 2.5-1.1193 2.5-2.5s-1.1193-2.5-2.5-2.5-2.49998 1.1193-2.49998 2.5 1.11928 2.5 2.49998 2.5z"/><path d="m4.59375 31.6667c1.38071 0 2.5-1.1192 2.5-2.5 0-1.3807-1.11929-2.5-2.5-2.5s-2.5 1.1193-2.5 2.5c0 1.3808 1.11929 2.5 2.5 2.5z"/><path d="m51.0879 40.9133c1.3807 0 2.5-1.1193 2.5-2.5s-1.1193-2.5-2.5-2.5-2.5 1.1193-2.5 2.5 1.1193 2.5 2.5 2.5z"/><path d="m38.0078 53.9934c1.3807 0 2.5-1.1193 2.5-2.5s-1.1193-2.5-2.5-2.5-2.5 1.1193-2.5 2.5 1.1193 2.5 2.5 2.5z"/><path d="m19.5137 53.9934c1.3807 0 2.5-1.1193 2.5-2.5s-1.1193-2.5-2.5-2.5-2.5 1.1193-2.5 2.5 1.1193 2.5 2.5 2.5z"/><path d="m6.43359 40.9133c1.38072 0 2.5-1.1193 2.5-2.5s-1.11928-2.5-2.5-2.5c-1.38071 0-2.5 1.1193-2.5 2.5s1.11929 2.5 2.5 2.5z"/></g></svg>
